X: 6
T:The Old Horned Sheep or The Humours Of Donnybrook
R: 32-bar single jig
M:6/8
K:G
(3d/2e/2f/2|"G"g2G GFG|"C"EGG "G"DGG|"G"g2G GFG|"A7"EAG "D7"FED|
"G"g2G GFG|"C"EGG "G"DGG|"C"EGG "D7"FGA|"G"BGG G2:|
D|:"G"Bdd dBG|Bdd d2G|"G"Bdd dBG|"Am"cBc "D7"A2c|
"G"Bdd dBG|"G"Bdd "D7"def|"Em"gfe dcB|"Am"ABG "D7"FED:|
